X: 42575
T: When The Cat's Away
R: jig
M: 6/8
K: Amajor
|E2A BAF|cef ecd|ece a2g|fec BAF|
E2A BAF|cef ecd|eag fec|1 BAG A2F:|2 BAG Acd||
|:ece a2g|fec e3|fec ABc|ded BAF|
EFA B2A|cef ecd|eag fec|BAG A3:|

